X:1
T:Washed in the Blood of the Lamb
T:Tullius Clinton O’Kane (1830-1912)
T:Washed in the Blood of the Lamb
T:Public Domain
T:Public Domain
T:Public Domain
C:Tullius Clinton O&#8217;Kane (1830-1912)
Z:Public Domain
%%score ( 1 2 ) 3
L:1/8
M:4/4
K:Eb
V:1 treble 
V:2 treble 
V:3 bass 
V:1
 [EG]2 [EG]>[EF] E2 [DF]2 | [EG]>[DF] [EG]>[FA] [GB]4 | [Fc]2 [FA]>[Ec] [GB]2 [EG]2 | %3
w: 1.~Who, who are these be-|the chil- ly wave, Just|on the bor- ders of|
w: 2.~These, these are they who,|their youth- ful days, Found|Je- sus ear- ly, and|
w: 3.~These, these are they who,|af- flict- ion’s woes, Ev-|er have found in Je-|
w: 4.~These, these are they who,|the con- flict dire, Bold-|ly have stood a- mid|
w: 5.~Safe, safe up- on the|er shin- ing shore, Sin,|pain, and death, and sor-|
 [FA]>[EG] [FA]>[GB] [EG]4 | [Ge]2 [Ge]2 [Fd]2 [Fd]2 | [Ac]2 [Ac]2 [GB]4 | %6
w: the si- lent grave, Shout-|ing Je- su’s power|to save, “Washed|
w: in wis- dom’s ways Proved|the full- ness of|His grace, “Washed|
w: sus calm re- pose, Such|as from a pure|heart flows, “Washed|
w: the hot- test fire; Je-|sus now says, “come|up higher,” “Washed|
w: row are all o’er; Hap-|py now and ev-|er- more, “Washed|
 [Ac]2 [FA]>[Ec] [EB]2 [DF]>[DG] | E6 z2 |:"^Refrain" [GB]>[Ac] [GB]>[EG] [Ge]2 [Ae]>[Ac] | %9
w: in the blood of the Lamb”?|||
w: in the blood of the Lamb.”|“Sweep-|through the gates” of the new Je-|
w: in the blood of the Lamb.”|||
w: in the blood of the Lamb.”|||
w: in the blood of the Lamb.”|||
 [GB]>[Ac] [GB]>[EG] [DF]4 | [DF]2 [DF]>[EG] ([FA][Ac]) [GB]>[FA] | ([EG]3 [FA] [GB]4) :| %12
w: |||
w: ru- sa- lem, “Washed in|the blood of the * Lamb,” “Washed|in * *|
w: |||
w: |||
w: |||
 [Ec]2 [FA]>[Ec] [EB]2 [DF]>[DG] | E6 z2 |] %14
w: ||
w: the blood of the Lamb.” *||
w: ||
w: ||
w: ||
V:2
 x4 E2 x2 | x8 | x8 | x8 | x8 | x8 | x8 | E6 x2 |: x8 | x8 | x8 | x8 :| x8 | E6 x2 |] %14
w: side||||||||||||||
w: in|||||||ing|||||||
w: in||||||||||||||
w: in||||||||||||||
w: ev-||||||||||||||
V:3
 [E,B,]2 [E,B,]>[E,A,] [E,G,]2 [B,,A,]2 | [E,B,]>[E,B,] [E,B,]>[E,B,] [E,E]4 | %2
w: ~ ~ ~ ~ ~|~ ~ ~ ~ ~|
 [A,,E]2 [A,,D]>[A,,A,] [E,B,]2 [E,B,]2 | [B,,B,]>[B,,B,] [B,,B,]>[B,,B,] [E,B,]4 | %4
w: ~ ~ ~ ~ ~|~ ~ ~ ~ ~|
 [E,B,]2 [E,B,]2 [B,,B,]2 [B,,D]2 | [E,E]2 [E,E]2 [E,E]4 | %6
w: ~ ~ ~ ~|~ ~ ~|
 [A,,E]2 [A,,D]>[A,,A,] [B,,G,]2 [B,,A,]>[B,,B,] | [E,G,]6 z2 |: %8
w: ~ ~ ~ ~ ~ ~|~|
 [E,E]>[E,E] [E,E]>[E,B,] [E,B,]2 [E,C]>[E,E] | [E,E]>[E,E] [E,E]>[E,B,] [B,,B,]4 | %10
w: ~ ~ ~ ~ ~ ~ ~|~ ~ ~ ~ ~|
 [B,,B,]2 [B,,B,]>[B,,B,] [B,,B,]2 [B,,B,]>[B,,B,] | [E,B,]2 [E,B,]>[E,B,] [E,E]4 :| %12
w: ~ ~ ~ ~ in the|blood of the Lamb.”|
 [A,,C]2 [A,,C]>[A,,A,] [B,,G,]2 [B,,A,]>[B,,B,] | [E,G,]6 z2 |] %14
w: ||

